flaticon/religion/paganism-1.svg

<svg xmlns="http://www.w3.org/2000/svg" width="32" height="32" viewBox="0 0 24 24">
    <path d="M 23.601562 8.398438 C 23.820312 8.398438 24 8.222656 24 8 L 24 6.398438 C 24 6.179688 23.820312 6 23.601562 6 L 18.800781 6 C 18.578125 6 18.398438 6.179688 18.398438 6.398438 L 18.398438 10.800781 L 13.199219 10.800781 L 13.199219 5.601562 L 17.601562 5.601562 C 17.820312 5.601562 18 5.421875 18 5.199219 L 18 0.398438 C 18 0.179688 17.820312 0 17.601562 0 L 16 0 C 15.777344 0 15.601562 0.179688 15.601562 0.398438 L 15.601562 3.199219 L 14.800781 3.199219 L 14.800781 0.398438 C 14.800781 0.179688 14.621094 0 14.398438 0 L 12.800781 0 C 12.578125 0 12.398438 0.179688 12.398438 0.398438 L 12.398438 3.199219 L 11.601562 3.199219 L 11.601562 0.398438 C 11.601562 0.179688 11.421875 0 11.199219 0 L 9.601562 0 C 9.378906 0 9.199219 0.179688 9.199219 0.398438 L 9.199219 3.199219 L 8.398438 3.199219 L 8.398438 0.398438 C 8.398438 0.179688 8.222656 0 8 0 L 6.398438 0 C 6.179688 0 6 0.179688 6 0.398438 L 6 5.199219 C 6 5.421875 6.179688 5.601562 6.398438 5.601562 L 10.800781 5.601562 L 10.800781 10.800781 L 5.601562 10.800781 L 5.601562 6.398438 C 5.601562 6.179688 5.421875 6 5.199219 6 L 0.398438 6 C 0.179688 6 0 6.179688 0 6.398438 L 0 8 C 0 8.222656 0.179688 8.398438 0.398438 8.398438 L 3.199219 8.398438 L 3.199219 9.199219 L 0.398438 9.199219 C 0.179688 9.199219 0 9.378906 0 9.601562 L 0 11.199219 C 0 11.421875 0.179688 11.601562 0.398438 11.601562 L 3.199219 11.601562 L 3.199219 12.398438 L 0.398438 12.398438 C 0.179688 12.398438 0 12.578125 0 12.800781 L 0 14.398438 C 0 14.621094 0.179688 14.800781 0.398438 14.800781 L 3.199219 14.800781 L 3.199219 15.601562 L 0.398438 15.601562 C 0.179688 15.601562 0 15.777344 0 16 L 0 17.601562 C 0 17.820312 0.179688 18 0.398438 18 L 5.199219 18 C 5.421875 18 5.601562 17.820312 5.601562 17.601562 L 5.601562 13.199219 L 10.800781 13.199219 L 10.800781 18 L 6.398438 18 C 6.179688 18 6 18.179688 6 18.398438 L 6 23.601562 C 6 23.820312 6.179688 24 6.398438 24 L 8 24 C 8.222656 24 8.398438 23.820312 8.398438 23.601562 L 8.398438 20.398438 L 9.199219 20.398438 L 9.199219 23.601562 C 9.199219 23.820312 9.378906 24 9.601562 24 L 11.199219 24 C 11.421875 24 11.601562 23.820312 11.601562 23.601562 L 11.601562 20.398438 L 12.398438 20.398438 L 12.398438 23.601562 C 12.398438 23.820312 12.578125 24 12.800781 24 L 14.398438 24 C 14.621094 24 14.800781 23.820312 14.800781 23.601562 L 14.800781 20.398438 L 15.601562 20.398438 L 15.601562 23.601562 C 15.601562 23.820312 15.777344 24 16 24 L 17.601562 24 C 17.820312 24 18 23.820312 18 23.601562 L 18 18.398438 C 18 18.179688 17.820312 18 17.601562 18 L 13.199219 18 L 13.199219 13.199219 L 18.398438 13.199219 L 18.398438 17.601562 C 18.398438 17.820312 18.578125 18 18.800781 18 L 23.601562 18 C 23.820312 18 24 17.820312 24 17.601562 L 24 16 C 24 15.777344 23.820312 15.601562 23.601562 15.601562 L 20.800781 15.601562 L 20.800781 14.800781 L 23.601562 14.800781 C 23.820312 14.800781 24 14.621094 24 14.398438 L 24 12.800781 C 24 12.578125 23.820312 12.398438 23.601562 12.398438 L 20.800781 12.398438 L 20.800781 11.601562 L 23.601562 11.601562 C 23.820312 11.601562 24 11.421875 24 11.199219 L 24 9.601562 C 24 9.378906 23.820312 9.199219 23.601562 9.199219 L 20.800781 9.199219 L 20.800781 8.398438 Z M 20.398438 10 L 23.199219 10 L 23.199219 10.800781 L 20.398438 10.800781 C 20.179688 10.800781 20 10.980469 20 11.199219 L 20 12.800781 C 20 13.019531 20.179688 13.199219 20.398438 13.199219 L 23.199219 13.199219 L 23.199219 14 L 20.398438 14 C 20.179688 14 20 14.179688 20 14.398438 L 20 16 C 20 16.222656 20.179688 16.398438 20.398438 16.398438 L 23.199219 16.398438 L 23.199219 17.199219 L 19.199219 17.199219 L 19.199219 12.800781 C 19.199219 12.578125 19.019531 12.398438 18.800781 12.398438 L 12.800781 12.398438 C 12.578125 12.398438 12.398438 12.578125 12.398438 12.800781 L 12.398438 18.398438 C 12.398438 18.621094 12.578125 18.800781 12.800781 18.800781 L 17.199219 18.800781 L 17.199219 23.199219 L 16.398438 23.199219 L 16.398438 20 C 16.398438 19.777344 16.222656 19.601562 16 19.601562 L 14.398438 19.601562 C 14.179688 19.601562 14 19.777344 14 20 L 14 23.199219 L 13.199219 23.199219 L 13.199219 20 C 13.199219 19.777344 13.019531 19.601562 12.800781 19.601562 L 11.199219 19.601562 C 10.980469 19.601562 10.800781 19.777344 10.800781 20 L 10.800781 23.199219 L 10 23.199219 L 10 20 C 10 19.777344 9.820312 19.601562 9.601562 19.601562 L 8 19.601562 C 7.777344 19.601562 7.601562 19.777344 7.601562 20 L 7.601562 23.199219 L 6.800781 23.199219 L 6.800781 18.800781 L 11.199219 18.800781 C 11.421875 18.800781 11.601562 18.621094 11.601562 18.398438 L 11.601562 12.800781 C 11.601562 12.578125 11.421875 12.398438 11.199219 12.398438 L 5.199219 12.398438 C 4.980469 12.398438 4.800781 12.578125 4.800781 12.800781 L 4.800781 17.199219 L 0.800781 17.199219 L 0.800781 16.398438 L 3.601562 16.398438 C 3.820312 16.398438 4 16.222656 4 16 L 4 14.398438 C 4 14.179688 3.820312 14 3.601562 14 L 0.800781 14 L 0.800781 13.199219 L 3.601562 13.199219 C 3.820312 13.199219 4 13.019531 4 12.800781 L 4 11.199219 C 4 10.980469 3.820312 10.800781 3.601562 10.800781 L 0.800781 10.800781 L 0.800781 10 L 3.601562 10 C 3.820312 10 4 9.820312 4 9.601562 L 4 8 C 4 7.777344 3.820312 7.601562 3.601562 7.601562 L 0.800781 7.601562 L 0.800781 6.800781 L 4.800781 6.800781 L 4.800781 11.199219 C 4.800781 11.421875 4.980469 11.601562 5.199219 11.601562 L 11.199219 11.601562 C 11.421875 11.601562 11.601562 11.421875 11.601562 11.199219 L 11.601562 5.199219 C 11.601562 4.980469 11.421875 4.800781 11.199219 4.800781 L 6.800781 4.800781 L 6.800781 0.800781 L 7.601562 0.800781 L 7.601562 3.601562 C 7.601562 3.820312 7.777344 4 8 4 L 9.601562 4 C 9.820312 4 10 3.820312 10 3.601562 L 10 0.800781 L 10.800781 0.800781 L 10.800781 3.601562 C 10.800781 3.820312 10.980469 4 11.199219 4 L 12.800781 4 C 13.019531 4 13.199219 3.820312 13.199219 3.601562 L 13.199219 0.800781 L 14 0.800781 L 14 3.601562 C 14 3.820312 14.179688 4 14.398438 4 L 16 4 C 16.222656 4 16.398438 3.820312 16.398438 3.601562 L 16.398438 0.800781 L 17.199219 0.800781 L 17.199219 4.800781 L 12.800781 4.800781 C 12.578125 4.800781 12.398438 4.980469 12.398438 5.199219 L 12.398438 11.199219 C 12.398438 11.421875 12.578125 11.601562 12.800781 11.601562 L 18.800781 11.601562 C 19.019531 11.601562 19.199219 11.421875 19.199219 11.199219 L 19.199219 6.800781 L 23.199219 6.800781 L 23.199219 7.601562 L 20.398438 7.601562 C 20.179688 7.601562 20 7.777344 20 8 L 20 9.601562 C 20 9.820312 20.179688 10 20.398438 10 Z M 20.398438 10"/>
</svg>

<svg xmlns="http://www.w3.org/2000/svg" width="32" height="32" viewBox="0 0 24 24">
    <path d="M23.602 8.398A.398.398 0 0 0 24 8V6.398A.4.4 0 0 0 23.602 6H18.8a.401.401 0 0 0-.403.398v4.403H13.2V5.6h4.403c.218 0 .398-.18.398-.402V.4A.4.4 0 0 0 17.602 0H16a.398.398 0 0 0-.398.398V3.2H14.8V.4A.401.401 0 0 0 14.398 0h-1.597a.401.401 0 0 0-.403.398V3.2h-.796V.4A.401.401 0 0 0 11.199 0H9.602a.401.401 0 0 0-.403.398V3.2h-.8V.4A.398.398 0 0 0 8 0H6.398A.4.4 0 0 0 6 .398V5.2c0 .223.18.403.398.403h4.403V10.8H5.6V6.398A.401.401 0 0 0 5.2 6H.4A.4.4 0 0 0 0 6.398V8c0 .223.18.398.398.398H3.2V9.2H.4A.401.401 0 0 0 0 9.602v1.597c0 .223.18.403.398.403H3.2v.796H.4a.401.401 0 0 0-.399.403v1.597c0 .223.18.403.398.403H3.2v.8H.4A.398.398 0 0 0 0 16v1.602A.4.4 0 0 0 .398 18H5.2c.223 0 .403-.18.403-.398v-4.403H10.8V18H6.398a.4.4 0 0 0-.398.398v5.204a.4.4 0 0 0 .398.398H8c.223 0 .398-.18.398-.398v-3.204H9.2v3.204c0 .218.18.398.403.398h1.597c.223 0 .403-.18.403-.398v-3.204h.796v3.204c0 .218.18.398.403.398h1.597c.223 0 .403-.18.403-.398v-3.204h.8v3.204c0 .218.176.398.399.398h1.602a.4.4 0 0 0 .398-.398v-5.204a.4.4 0 0 0-.398-.398h-4.403v-4.8h5.2v4.402c0 .218.18.398.402.398h4.8a.4.4 0 0 0 .399-.398V16a.398.398 0 0 0-.398-.398H20.8V14.8h2.8c.22 0 .399-.18.399-.403v-1.597a.401.401 0 0 0-.398-.403H20.8v-.796h2.8c.22 0 .399-.18.399-.403V9.602a.401.401 0 0 0-.398-.403H20.8v-.8zM20.398 10H23.2v.8h-2.8a.4.4 0 0 0-.399.4v1.6a.4.4 0 0 0 .398.4H23.2v.8h-2.8a.4.4 0 0 0-.399.398V16c0 .223.18.398.398.398H23.2v.801h-4v-4.398a.401.401 0 0 0-.398-.403h-6a.402.402 0 0 0-.403.403v5.597c0 .223.18.403.403.403h4.398v4.398h-.8V20a.395.395 0 0 0-.399-.398h-1.602A.398.398 0 0 0 14 20v3.2h-.8V20a.398.398 0 0 0-.4-.398h-1.6a.398.398 0 0 0-.4.398v3.2H10V20a.398.398 0 0 0-.398-.398H8a.395.395 0 0 0-.398.398v3.2H6.8v-4.4h4.398c.223 0 .403-.179.403-.402v-5.597a.402.402 0 0 0-.403-.403h-6a.401.401 0 0 0-.398.403v4.398h-4v-.8h2.8A.398.398 0 0 0 4 16v-1.602A.4.4 0 0 0 3.602 14H.8v-.8h2.8A.4.4 0 0 0 4 12.8v-1.6a.4.4 0 0 0-.398-.4H.8V10h2.8A.4.4 0 0 0 4 9.602V8a.398.398 0 0 0-.398-.398H.8V6.8h4v4.398c0 .223.18.403.398.403h6c.223 0 .403-.18.403-.403v-6a.401.401 0 0 0-.403-.398H6.801v-4h.8v2.8c0 .22.176.399.399.399h1.602A.4.4 0 0 0 10 3.602V.8h.8v2.8a.4.4 0 0 0 .4.399h1.6a.4.4 0 0 0 .4-.398V.8h.8v2.8a.4.4 0 0 0 .398.399H16c.223 0 .398-.18.398-.398V.8h.801v4h-4.398a.401.401 0 0 0-.403.398v6c0 .223.18.403.403.403h6c.219 0 .398-.18.398-.403V6.801h4v.8h-2.8A.398.398 0 0 0 20 8v1.602a.4.4 0 0 0 .398.398zm0 0"/>
</svg>
